X: 10751
T: Dr. Gilbert's
R: reel
M: 4/4
K: Edorian
|:gf|"Em"eBBA B2Bc|"D"dBA=c BAGF|"Em"EDB,D "G"G2FG|"Em"EDB,E "D"DB,A,G,|
"Em"B,EED EDB,D|"G"GEED "D"EFGA|"G"Bded Bdgb|"D"afdf "Em"ef:|
|:gf|"Em"eBBB gBBB|"D"defg afdf|"G"g2bg "D"fgaf|"Am"egfd "Em"edBd|
"D"afdf "Bm"edBc|"D"dBAF AFDF|"Am"EG=cA "G"Bdgb|"D"afdf "Em"ef:|

